X:1
T:Croughly - a strathspey
T:Croughly - a strathspey
T:William Marshall
C:William Marshall
L:1/8
M:4/4
K:C
V:1 treble 
V:1
 BAe[Q:1/8=266]^c | A<dd>e ^f2 df | e>d^c<g a/g/^f/e/ c>e | A<dd>e ^f2 df | e>^c a/g/^f/e/ d2 d :| %5
 x8 | E | ^F>GA>B ^c<FA<F | E>^FG>^c G/F/E/D/ ^C>E | ^F>GAB ^cFAg | ^f>d f/e/d/^c/ d2 DE | %11
 ^F>GA>B ^c<FA<F | E>^FG>^c G/F/E/D/ ^CE | ^F<AG<B A<^fe<g | ^f>d f/e/d/^c/ d2 d |] %15

